!!!SOCIAL_FUNCTION:	songs of war
!!!PDT:	1913
!!!OTL: No_38_Scalp_Song.krn
!!!REG: Great_Lakes
!!!LANG: Non-Tone
!!!LING_GROUP: Algonquin
**kern	**kern
*staff2	*staff1
*clefF4	*clefF4
*k[b-]	*k[b-]
*M3/4	*M3/4
4r	8.d\L
.	16d\Jk
=1	=1
8GG/L	4.d\
8GG/J	.
8GG/L	.
8GG/J	8A\
8GG/L	4d\
8GG/J	.
=2	=2
2.r	2d\
.	8d\L
.	8d\J
=3	=3
2.r	4.d\
.	8A\
.	4G\
=4	=4
2.r	2G\
.	4G\
=5	=5
2.r	4.F\
.	8D\
.	4A\
=6	=6
2.r	2A\
.	4A\
=7	=7
2.r	4.G\
.	8E\
.	4G\
=8	=8
2.r	2G\
.	4G\
=9	=9
2.r	4.F\
.	8D\
.	4F\
=10	=10
2.r	2.D\
=11	=11
2.r	4.AA/
.	8AA/
.	[4AA/
=12	=12
2.r	2AA/]
.	4r
==	==
*-	*-
